!!!!SEGMENT: pl-wn--sd-xvi-qu-273--149_gomolka-mikolaj--panu-swemu-dajmy-czesc-rymy-nowymi.krn
!!!cenid: 15xx:354
!!!COM: Gomółka, Mikołaj
!!!COM-rismid: pe30013343
!!!CDT: ~1535->1591/04/30
!!!CNT: Polish
!!!GTL: Melodiae na psalterz polski
!!!OTL: CXLIX. Panu swemu dajmy cześć rymy nowymi,
!!!PDT: 1580
!!!AGN: Sacred
!!!SMS-siglum: PL-Wn
!!!SMS-shelfmark: SD XVI.Qu.273
!!!SMS-shelfwork: 150 G
!!!NIFC-rismid:
!!!ONB-nifc: Melodiae na psalterz polski
**kern	**text	**kern	**text	**kern	**text	**kern	**text
*part4	*part4	*part3	*part3	*part2	*part2	*part1	*part1
*staff4	*staff4	*staff3	*staff3	*staff2	*staff2	*staff1	*staff1
*clefF4	*	*clefC3	*	*clefC2	*	*clefG2	*
*k[b-]	*	*k[b-]	*	*k[b-]	*	*k[b-]	*
*F:	*	*F:	*	*F:	*	*F:	*
*M4/2	*	*M4/2	*	*M4/2	*	*M4/2	*
*met(C|)	*	*met(C|)	*	*met(C|)	*	*met(C|)	*
=-	=-	=-	=-	=-	=-	=-	=-
2FF	Pa-	1A	Pa-	2c	Pa-	1f	Pa-
4F	.	.	.	1f	.	.	.
4E	.	.	.	.	.	.	.
4D	.	1F	-nu	.	.	1a	-nu
4C	.	.	.	.	.	.	.
2D/	-nu	.	.	4e	-nu	.	.
.	.	.	.	4d	.	.	.
=3-	=3-	=3-	=3-	=3-	=3-	=3-	=3-
1C	ʃwe-	4G	ʃwe-	4e/	ʃwe-	1cc	ʃwe-
.	.	2A	.	2f	.	.	.
.	.	4G	.	4e/	.	.	.
2FF	-mu	4A	-mu	2f	-mu	2cc	-mu
.	.	4B-	.	.	.	.	.
4F	day-	2.c/	day-	2a	day-	2cc	day-
4G	.	.	.	.	.	.	.
=4-	=4-	=4-	=4-	=4-	=4-	=4-	=4-
4A	-my	.	.	2a	-my	2cc	-my
4B-	.	4d	-my	.	.	.	.
2c	cӡeść	2e	cӡeść	2g	cӡeść	2cc	cӡeść
1F	ry-	2.f	ry-	2.a	ry-	1a	ry-
.	.	4e	.	4g	.	.	.
=5-	=5-	=5-	=5-	=5-	=5-	=5-	=5-
2.B-	-my	2.d	-my	2f	-my	2.b-/	-my
.	.	.	.	1f	no-	.	.
4A	.	4c/	.	.	.	4cc	.
4G	no-	4B-	no-	.	.	2dd	no-
4F	.	4A	.	.	.	.	.
2G	-wy-	2B-	-wy-	2e/	-wy-	4cc	-wy-
.	.	.	.	.	.	4b-	.
=6-	=6-	=6-	=6-	=6-	=6-	=6-	=6-
2F	-mi/	2c/	-mi/	2f	-mi/	2a	-mi/
2.A	Chwa-	2.c/	Chwa-	2e	Chwa-	2cc	Chwa-
.	.	.	.	2e	.	2cc	.
4G	.	4B-	.	.	.	.	.
4F	-łá	4A	-łá	2f	-łá	2cc	-łá
4E	.	4G	.	.	.	.	.
!!LO:PB:g=original
=7-	=7-	=7-	=7-	=7-	=7-	=7-	=7-
2.F	ie-	2.A	ie-	2c	ie-	2cc	ie-
.	.	.	.	2f	-go	2cc	-go
4E	-go	4G	-go	.	.	.	.
4D	nie-	4F	nie-	2f	nie-	1dd	nie_chay
4E	.	4G	.	.	.	.	.
4F	-chay	4A	-chay	2f	-chay	.	.
4G	.	4B-	.	.	.	.	.
=8-	=8-	=8-	=8-	=8-	=8-	=8-	=8-
2A	brӡmi	2c/	brӡmi	2e/	brӡmi	2cc	brӡmi
2.B-	mie-	4B-	mie-	4d	mie-	2dd	mie-
.	.	4c	.	4e	.	.	.
.	.	4d	-dӡy	2f	-dӡy	2b-/	-dӡy
4c	-dӡy	4e	.	.	.	.	.
2d	dob-	1f	dob-	2d	dob-	2b-/	dob-
=9-	=9-	=9-	=9-	=9-	=9-	=9-	=9-
1c	-ry-	.	.	2.e/	-ry-	2.cc	-ry-
.	.	2e	-ry-	.	.	.	.
.	.	.	.	4d	.	4b-/	.
!	!	!	!	!'ogonek po lewej stronie'	!	!	!
!!LO:N:vis=00
1F	-mi.	1f	-mi.	1c/	-mi.	1a/	-mi.
=-	=-	=-	=-	=-	=-	=-	=-
*-	*-	*-	*-	*-	*-	*-	*-
!!!RDF**kern: l = terminal long
!!!system-decoration: s1,s2,s3,s4
!!!ENC:Anna Matuszewska
!!!END:2020-02-25
!!!URL-scan: https://polona.pl/item/melodiae-na-psalterz-polski,Nzk3MTM4ODQ/351 Scan on Polona
!!!IIIF: https://polona.pl/iiif/item/Nzk3MTM4ODQ/manifest.json
